X:1
T:God’s Holy Book
T:Edwin Othello Excell
T:God’s Holy Book
T:Public Domain
T:Public Domain
C:Edwin Othello Excell
Z:Public Domain
%%score ( 1 2 ) 3
L:1/8
M:3/4
K:Ab
V:1 treble 
V:2 treble 
V:3 bass 
V:1
 [CE]2 | [CA]>[B,G] [CA]3 [DB] | [Ec]>[=D=B] [Ec]3 [E_d] | [Ee]>[Ef] [Ee]3 [Ac] | %4
w: 1.~What|light is this whose|con- stant ray Re-|veals to tra- v’lers|
w: 2.~What|faith- ful chart on|life’s rough sea, What|com- pass true wher-|
w: 3.~What|sword en- a- bles|us to fight A-|gainst sin’s pow’rs and|
 [Ac]>[GB] [GB]2 [DE]2 | [CA]>[B,G] [CA]3 [DB] | [Ec]>[=D=B] [Ec]3 [E_d] | [Ee]>[Ef] [Ee]3 [Ec] | %8
w: lost the way To|man- sions of e-|ter- nal day? God’s|ho- ly book, the|
w: e’er we be, What|an- chor for e-|ter- ni- ty? God’s|ho- ly book, the|
w: Sa- tan’s might? Gives|vic- to- ry for|God and right? God’s|ho- ly book, the|
 [DB]2 [CA]2 ||"^Refrain" A2 | (z E [EB]3) [Ec] | [EB]2 [EA]2 c2 | (z A [Ae]3) [Ac] | %13
w: Bi- ble.|I|* * love|* Bi- ble,|* * I|
w: Bi- ble.|||||
w: Bi- ble.|||||
 [Ac]2 [GB]2 [DE]2 | [CA]>[B,G] [CA]3 [DB] | [Ec]>[=D=B] [Ec]3 [E_d] | [Ee]>[Ef] [Ee]3 [Ec] | %17
w: * the Bi-|ble, A light to|shine up- on my|path, I love, I|
w: ||||
w: ||||
 [DB]2 [CA]2 |] %18
w: love the|
w: |
w: |
V:2
 x2 | x6 | x6 | x6 | x6 | x6 | x6 | x6 | x4 || x2 | B2 x4 | x6 | e2- x4 | x6 | x6 | x6 | x6 | x4 |] %18
w: ||||||||||the||love||||||
V:3
 [A,,A,]2 | [A,,A,]>[A,,A,] [A,,A,]3 [A,,A,] | [A,,A,]>[A,,A,] [A,,A,]3 [A,B,] | %3
w: ~|~ ~ ~ ~|~ ~ ~ ~|
 [A,C]>[A,D] [A,C]3 [A,E] | [E,E]>[E,E] [E,E]2 [E,G,]2 | [A,,A,]>[A,,A,] [A,,A,]3 [A,,A,] | %6
w: ~ ~ ~ ~|~ ~ ~ ~|~ ~ ~ ~|
 [A,,A,]>[A,,A,] [A,,A,]3 [A,B,] | [A,C]>[A,D] [A,C]3 [A,,A,] | [E,G,]2 [A,,A,]2 || z2 | %10
w: ~ ~ ~ ~|~ ~ ~ ~|~ ~||
 z [E,D] [E,D]3 [E,D] | [A,C]2 [A,C]2 z2 | z [A,C] [A,C]3 [A,E] | [E,E]2 [E,E]2 [E,G,]2 | %14
w: I love the|Bi- ble,|I love the|Bi- ble, *|
 [A,,A,]>[A,,A,] [A,,A,]3 [A,,A,] | [A,,A,]>[A,,A,] [A,,A,]3 [A,B,] | [A,C]>[A,D] [A,C]3 [A,,A,] | %17
w: |||
 [E,G,]2 [A,,A,]2 |] %18
w: |

